assets/logo/logo-type.svg

<?xml version="1.0" encoding="utf-8"?>
<!-- Generator: Adobe Illustrator 16.0.0, SVG Export Plug-In . SVG Version: 6.00 Build 0)  -->
<!DOCTYPE svg PUBLIC "-//W3C//DTD SVG 1.1//EN" "http://www.w3.org/Graphics/SVG/1.1/DTD/svg11.dtd">
<svg version="1.1" id="Layer_1" xmlns="http://www.w3.org/2000/svg" xmlns:xlink="http://www.w3.org/1999/xlink" x="0px" y="0px"
	 width="874.38px" height="326.446px" viewBox="0 0 874.38 326.446" enable-background="new 0 0 874.38 326.446"
	 xml:space="preserve">
<g>
	<path fill="#231F20" d="M390.103,138.878l-2.64,12.72l-1.32,0.6c-4.08-2.239-7.721-3.36-10.92-3.36c-3.681,0-6.521,1.32-8.52,3.96
		c-2,2.64-3,6.401-3,11.28c0,5.601,1.08,9.881,3.24,12.84c2.16,2.96,5.239,4.44,9.24,4.44c3.6,0,7.599-1,12-3l1.2,0.959l-1.56,12.36
		c-4.8,1.519-9.72,2.28-14.76,2.28c-7.68,0-13.68-2.5-18-7.5c-4.32-4.999-6.48-11.979-6.48-20.94c0-9.279,2.359-16.539,7.08-21.78
		c4.719-5.239,11.28-7.86,19.68-7.86C380.942,135.878,385.862,136.879,390.103,138.878z"/>
	<path fill="#231F20" d="M429.763,151.418c-1.32-1.56-3.221-2.34-5.7-2.34c-3.6,0-7.401,1.68-11.4,5.04l-0.24,14.04l0.84,24.601
		h-15.96l0.84-23.16l-0.72-59.88l15.96-1.2l-0.6,36.36h0.72c4.399-4,9.199-6.879,14.4-8.64c6.079,0,10.719,1.38,13.92,4.14
		c3.199,2.76,4.72,6.741,4.56,11.94l-0.36,15.96l0.72,24.479h-16.08l0.96-34.8C431.702,155.159,431.083,152.979,429.763,151.418z"/>
	<path fill="#231F20" d="M470.263,166.958c0.64,10.08,5.599,15.119,14.88,15.119c5.199,0,10.56-1.439,16.08-4.319l1.319,0.84
		l-2.159,11.761c-5.601,2.399-11.201,3.6-16.801,3.6c-8.88,0-15.78-2.56-20.7-7.68c-4.92-5.119-7.379-12.16-7.379-21.121
		c0-9.039,2.479-16.159,7.44-21.36c4.959-5.199,11.68-7.8,20.16-7.8c6.96,0,12.318,1.94,16.08,5.82
		c3.759,3.881,5.64,9.261,5.64,16.14c0,2.16-0.161,4.361-0.479,6.6l-2.28,2.28L470.263,166.958z M482.503,146.438
		c-3.12,0-5.7,1.02-7.74,3.06c-2.04,2.04-3.42,4.94-4.14,8.7l20.159-0.6l0.24-1.44C491.022,149.678,488.182,146.438,482.503,146.438
		z"/>
	<path fill="#231F20" d="M552.102,138.878l-2.64,12.72l-1.32,0.6c-4.08-2.239-7.722-3.36-10.92-3.36c-3.681,0-6.521,1.32-8.521,3.96
		c-2,2.64-3,6.401-3,11.28c0,5.601,1.08,9.881,3.24,12.84c2.16,2.96,5.239,4.44,9.24,4.44c3.6,0,7.6-1,12-3l1.2,0.959l-1.561,12.36
		c-4.8,1.519-9.72,2.28-14.76,2.28c-7.68,0-13.68-2.5-18-7.5c-4.32-4.999-6.479-11.979-6.479-20.94
		c0-9.279,2.358-16.539,7.079-21.78c4.72-5.239,11.28-7.86,19.681-7.86C542.94,135.878,547.86,136.879,552.102,138.878z"/>
	<path fill="#231F20" d="M575.262,192.758h-15.96l0.84-23.16l-0.72-59.88l15.96-1.2l-0.96,59.64L575.262,192.758z M610.062,190.119
		v1.68c-2.72,0.561-7.68,1.279-14.88,2.16l-1.68-0.721c-7.44-10.56-13.521-20.439-18.24-29.64v-1.08l13.92-19.8l2.88-5.76h16.801
		l-18.24,25.2C594.621,168.479,601.102,177.799,610.062,190.119z"/>
	<path fill="#889EA8" d="M631.362,111.758c1.398,1.44,2.1,3.44,2.1,6c0,2.721-0.761,4.881-2.279,6.48
		c-1.521,1.601-3.601,2.4-6.24,2.4c-2.641,0-4.661-0.72-6.061-2.16c-1.4-1.44-2.1-3.48-2.1-6.12s0.78-4.759,2.34-6.36
		c1.561-1.6,3.699-2.4,6.42-2.4C628.021,109.598,629.962,110.318,631.362,111.758z M632.862,192.758h-15.96l0.84-23.04l-0.72-31.68
		l15.96-1.32l-0.96,31.439L632.862,192.758z"/>
	<path fill="#889EA8" d="M676.901,178.958l1.32,1.199l-1.561,9.48c-4.08,2.082-8.24,3.36-12.479,3.84
		c-10.8-1.119-16.2-6.398-16.2-15.84l0.6-9.96l-0.119-20.64h-7.44l-0.6-0.84l0.84-8.76h7.08v-9.24l14.52-4.68l1.08,0.96l-0.36,12.96
		h14.28l0.48,0.84l-0.721,8.76h-14.279l-0.721,26.88c0,2.562,0.48,4.38,1.44,5.46s2.56,1.62,4.8,1.62
		C671.421,180.999,674.101,180.32,676.901,178.958z"/>
	<path fill="#231F20" d="M726.342,143.078c4.319,4.8,6.479,11.721,6.479,20.76c0,9.761-2.321,17.22-6.96,22.38
		c-4.641,5.16-11.321,7.74-20.04,7.74c-8.16,0-14.399-2.4-18.72-7.2s-6.479-11.719-6.479-20.76c0-9.76,2.319-17.22,6.96-22.38
		c4.639-5.16,11.319-7.74,20.04-7.74C715.781,135.878,722.021,138.278,726.342,143.078z M698.201,150.518
		c-1.721,2.562-2.579,6.681-2.579,12.36c0,7.361,0.879,12.6,2.64,15.72c1.759,3.12,4.639,4.681,8.64,4.681
		c3.84,0,6.619-1.261,8.34-3.78c1.72-2.521,2.58-6.66,2.58-12.421c0-7.278-0.899-12.498-2.699-15.659
		c-1.801-3.16-4.662-4.74-8.58-4.74C702.701,146.678,699.921,147.959,698.201,150.518z"/>
	<path fill="#231F20" d="M789.461,181.058c0.399,0.521,1.119,0.78,2.16,0.78c0.799,0,1.839-0.159,3.119-0.479l1.2,0.959l-1.439,8.4
		c-2.562,1.68-5.48,2.68-8.761,3c-5.039-0.48-8.24-3.48-9.6-9h-1.2c-4.56,4.4-9.239,7.32-14.04,8.76c-6,0-10.601-1.38-13.8-4.14
		c-3.2-2.761-4.8-6.739-4.8-11.94l0.36-14.16l-0.601-25.2l15.48-1.32l-0.48,35.4c0,5.681,2.4,8.52,7.2,8.52
		c3.36,0,6.84-1.561,10.44-4.68v-37.92l15.119-1.32l-0.96,41.52C788.86,179.599,789.06,180.539,789.461,181.058z"/>
	<path fill="#231F20" d="M834.579,178.958l1.32,1.199l-1.561,9.48c-4.08,2.082-8.24,3.36-12.479,3.84
		c-10.8-1.119-16.2-6.398-16.2-15.84l0.6-9.96l-0.119-20.64h-7.44l-0.6-0.84l0.84-8.76h7.08v-9.24l14.52-4.68l1.08,0.96l-0.36,12.96
		h14.28l0.48,0.84l-0.721,8.76H821.02l-0.721,26.88c0,2.562,0.48,4.38,1.44,5.46s2.56,1.62,4.8,1.62
		C829.099,180.999,831.778,180.32,834.579,178.958z"/>
</g>
<g>
	<path fill="#EEC900" d="M190.878,164.796c0-15.434-12.519-27.951-27.951-27.951c-15.438,0-27.95,12.518-27.95,27.951
		c0,15.446,12.512,27.962,27.95,27.962C178.359,192.758,190.878,180.243,190.878,164.796z"/>
</g>
<g>
	<path fill="#7C4350" d="M162.927,28.211c43.725,0,82.628,20.579,107.626,52.544l-77.669,40.175
		c-8.53-5.836-18.84-9.264-29.957-9.264c-29.344,0-53.14,23.789-53.14,53.135c0,29.347,23.796,53.141,53.14,53.141
		c3.77,0,7.455-0.41,11.009-1.159l77.5,52.01c-23.843,20.314-54.735,32.603-88.509,32.603c-75.437,0-136.592-61.153-136.592-136.594
		C26.335,89.365,87.49,28.211,162.927,28.211z"/>
</g>
<g>
	<path fill="#231F20" d="M190.878,208.742l46.646,28.158c29.294-6.818,7.493-58.36,7.493-58.36l19.299-2.819l-24.069-60.995
		l-34.288,17.49C230.481,183.761,190.878,208.742,190.878,208.742z M225.031,156.4c0-4.954,4.019-8.967,8.97-8.967
		c4.955,0,8.969,4.013,8.969,8.967c0,4.95-4.014,8.967-8.969,8.967C229.05,165.367,225.031,161.35,225.031,156.4z"/>
</g>
<g>
	<path fill="#889EA8" d="M263.633,252.253c21.487-24.13,34.542-55.931,34.542-90.78c0-25.376-6.924-49.131-18.971-69.49
		l-14.813,7.107c0.256,0.402,0.498,0.812,0.738,1.221c10.924,18.441,16.692,39.595,16.692,61.162
		c0,29.542-10.804,57.907-30.416,79.935c-0.857,0.89-2.099,2.262-2.968,3.104l13.362,9.777c0.342-0.341,0.896-0.985,1.355-1.505
		l0.006,0.005c0.104-0.116,0.205-0.234,0.309-0.351c0.055-0.06,0.12-0.134,0.167-0.183L263.633,252.253z"/>
</g>
</svg>

<svg xmlns="http://www.w3.org/2000/svg" viewBox="0 0 875 327" width="875" height="327">
	<style>
		tspan { white-space:pre }
		.shp0 { fill: #ffffff } 
		.shp1 { fill: #7fc6a4 } 
		.shp2 { fill: #efc900 } 
		.shp3 { fill: #7b4350 } 
		.shp4 { fill: #889ea8 } 
	</style>
	<g id="Layer">
		<path id="Layer" fill-rule="evenodd" class="shp0" d="M390.1 138.88L387.46 151.6L386.14 152.2C382.06 149.96 378.42 148.84 375.22 148.84C371.54 148.84 368.7 150.16 366.7 152.8C364.7 155.44 363.7 159.2 363.7 164.08C363.7 169.68 364.78 173.96 366.94 176.92C369.1 179.88 372.18 181.36 376.18 181.36C379.78 181.36 383.78 180.36 388.18 178.36L389.38 179.32L387.82 191.68C383.02 193.2 378.1 193.96 373.06 193.96C365.38 193.96 359.38 191.46 355.06 186.46C350.74 181.46 348.58 174.48 348.58 165.52C348.58 156.24 350.94 148.98 355.66 143.74C360.38 138.5 366.94 135.88 375.34 135.88C380.94 135.88 385.86 136.88 390.1 138.88ZM429.76 151.42C428.44 149.86 426.54 149.08 424.06 149.08C420.46 149.08 416.66 150.76 412.66 154.12L412.42 168.16L413.26 192.76L397.3 192.76L398.14 169.6L397.42 109.72L413.38 108.52L412.78 144.88L413.5 144.88C417.9 140.88 422.7 138 427.9 136.24C433.98 136.24 438.62 137.62 441.82 140.38C445.02 143.14 446.54 147.12 446.38 152.32L446.02 168.28L446.74 192.76L430.66 192.76L431.62 157.96C431.7 155.16 431.08 152.98 429.76 151.42ZM470.26 166.96C470.9 177.04 475.86 182.08 485.14 182.08C490.34 182.08 495.7 180.64 501.22 177.76L502.54 178.6L500.38 190.36C494.78 192.76 489.18 193.96 483.58 193.96C474.7 193.96 467.8 191.4 462.88 186.28C457.96 181.16 455.5 174.12 455.5 165.16C455.5 156.12 457.98 149 462.94 143.8C467.9 138.6 474.62 136 483.1 136C490.06 136 495.42 137.94 499.18 141.82C502.94 145.7 504.82 151.08 504.82 157.96C504.82 160.12 504.66 162.32 504.34 164.56L502.06 166.84L470.26 166.96ZM482.5 146.44C479.38 146.44 476.8 147.46 474.76 149.5C472.72 151.54 471.34 154.44 470.62 158.2L490.78 157.6L491.02 156.16C491.02 149.68 488.18 146.44 482.5 146.44ZM552.1 138.88L549.46 151.6L548.14 152.2C544.06 149.96 540.42 148.84 537.22 148.84C533.54 148.84 530.7 150.16 528.7 152.8C526.7 155.44 525.7 159.2 525.7 164.08C525.7 169.68 526.78 173.96 528.94 176.92C531.1 179.88 534.18 181.36 538.18 181.36C541.78 181.36 545.78 180.36 550.18 178.36L551.38 179.32L549.82 191.68C545.02 193.2 540.1 193.96 535.06 193.96C527.38 193.96 521.38 191.46 517.06 186.46C512.74 181.46 510.58 174.48 510.58 165.52C510.58 156.24 512.94 148.98 517.66 143.74C522.38 138.5 528.94 135.88 537.34 135.88C542.94 135.88 547.86 136.88 552.1 138.88ZM575.26 192.76L559.3 192.76L560.14 169.6L559.42 109.72L575.38 108.52L574.42 168.16L575.26 192.76ZM610.06 190.12L610.06 191.8C607.34 192.36 602.38 193.08 595.18 193.96L593.5 193.24C586.06 182.68 579.98 172.8 575.26 163.6L575.26 162.52L589.18 142.72L592.06 136.96L608.86 136.96L590.62 162.16C594.62 168.48 601.1 177.8 610.06 190.12Z" />
		<path id="Layer" class="shp1" d="M631.36 111.76C632.76 113.2 633.46 115.2 633.46 117.76C633.46 120.48 632.7 122.64 631.18 124.24C629.66 125.84 627.58 126.64 624.94 126.64C622.3 126.64 620.28 125.92 618.88 124.48C617.48 123.04 616.78 121 616.78 118.36C616.78 115.72 617.56 113.6 619.12 112C620.68 110.4 622.82 109.6 625.54 109.6C628.02 109.6 629.96 110.32 631.36 111.76ZM632.86 192.76L616.9 192.76L617.74 169.72L617.02 138.04L632.98 136.72L632.02 168.16L632.86 192.76ZM676.9 178.96L678.22 180.16L676.66 189.64C672.58 191.72 668.42 193 664.18 193.48C653.38 192.36 647.98 187.08 647.98 177.64L648.58 167.68L648.46 147.04L641.02 147.04L640.42 146.2L641.26 137.44L648.34 137.44L648.34 128.2L662.86 123.52L663.94 124.48L663.58 137.44L677.86 137.44L678.34 138.28L677.62 147.04L663.34 147.04L662.62 173.92C662.62 176.48 663.1 178.3 664.06 179.38C665.02 180.46 666.62 181 668.86 181C671.42 181 674.1 180.32 676.9 178.96Z" />
		<path id="Layer" fill-rule="evenodd" class="shp0" d="M726.34 143.08C730.66 147.88 732.82 154.8 732.82 163.84C732.82 173.6 730.5 181.06 725.86 186.22C721.22 191.38 714.54 193.96 705.82 193.96C697.66 193.96 691.42 191.56 687.1 186.76C682.78 181.96 680.62 175.04 680.62 166C680.62 156.24 682.94 148.78 687.58 143.62C692.22 138.46 698.9 135.88 707.62 135.88C715.78 135.88 722.02 138.28 726.34 143.08ZM698.2 150.52C696.48 153.08 695.62 157.2 695.62 162.88C695.62 170.24 696.5 175.48 698.26 178.6C700.02 181.72 702.9 183.28 706.9 183.28C710.74 183.28 713.52 182.02 715.24 179.5C716.96 176.98 717.82 172.84 717.82 167.08C717.82 159.8 716.92 154.58 715.12 151.42C713.32 148.26 710.46 146.68 706.54 146.68C702.7 146.68 699.92 147.96 698.2 150.52ZM789.46 181.06C789.86 181.58 790.58 181.84 791.62 181.84C792.42 181.84 793.46 181.68 794.74 181.36L795.94 182.32L794.5 190.72C791.94 192.4 789.02 193.4 785.74 193.72C780.7 193.24 777.5 190.24 776.14 184.72L774.94 184.72C770.38 189.12 765.7 192.04 760.9 193.48C754.9 193.48 750.3 192.1 747.1 189.34C743.9 186.58 742.3 182.6 742.3 177.4L742.66 163.24L742.06 138.04L757.54 136.72L757.06 172.12C757.06 177.8 759.46 180.64 764.26 180.64C767.62 180.64 771.1 179.08 774.7 175.96L774.7 138.04L789.82 136.72L788.86 178.24C788.86 179.6 789.06 180.54 789.46 181.06ZM834.58 178.96L835.9 180.16L834.34 189.64C830.26 191.72 826.1 193 821.86 193.48C811.06 192.36 805.66 187.08 805.66 177.64L806.26 167.68L806.14 147.04L798.7 147.04L798.1 146.2L798.94 137.44L806.02 137.44L806.02 128.2L820.54 123.52L821.62 124.48L821.26 137.44L835.54 137.44L836.02 138.28L835.3 147.04L821.02 147.04L820.3 173.92C820.3 176.48 820.78 178.3 821.74 179.38C822.7 180.46 824.3 181 826.54 181C829.1 181 831.78 180.32 834.58 178.96Z" />
	</g>
	<g id="Layer">
		<path id="Layer" class="shp2" d="M190.88 164.8C190.88 149.36 178.36 136.84 162.93 136.84C147.49 136.84 134.98 149.36 134.98 164.8C134.98 180.24 147.49 192.76 162.93 192.76C178.36 192.76 190.88 180.24 190.88 164.8Z" />
	</g>
	<g id="Layer">
		<path id="Layer" class="shp3" d="M162.93 28.21C206.65 28.21 245.56 48.79 270.55 80.75L192.88 120.93C184.35 115.09 174.04 111.67 162.93 111.67C133.58 111.67 109.79 135.45 109.79 164.8C109.79 194.15 133.58 217.94 162.93 217.94C166.7 217.94 170.38 217.53 173.94 216.78L251.44 268.79C227.59 289.11 196.7 301.4 162.93 301.4C87.49 301.4 26.34 240.24 26.34 164.8C26.34 89.36 87.49 28.21 162.93 28.21Z" />
	</g>
	<g id="Layer">
		<path id="Layer" fill-rule="evenodd" class="shp0" d="M205.96 132.22L240.25 114.73L264.32 175.72L245.02 178.54C245.02 178.54 266.82 230.08 237.52 236.9L190.88 208.74C190.88 208.74 230.48 183.76 205.96 132.22ZM234 165.37C238.96 165.37 242.97 161.35 242.97 156.4C242.97 151.45 238.96 147.43 234 147.43C229.05 147.43 225.03 151.45 225.03 156.4C225.03 161.35 229.05 165.37 234 165.37Z" />
	</g>
	<g id="Layer">
		<path id="Layer" class="shp4" d="M263.63 252.25C285.12 228.12 298.17 196.32 298.17 161.47C298.17 136.1 291.25 112.34 279.2 91.98L264.39 99.09C264.65 99.49 264.89 99.9 265.13 100.31C276.05 118.75 281.82 139.91 281.82 161.47C281.82 191.01 271.02 219.38 251.4 241.41C250.55 242.3 249.31 243.67 248.44 244.51L261.8 254.29C262.14 253.95 262.69 253.3 263.15 252.78L263.16 252.79C263.26 252.67 263.36 252.55 263.47 252.44C263.52 252.38 263.59 252.3 263.64 252.25L263.63 252.25Z" />
	</g>
</svg>
